svg/speaker.svg

<svg xmlns="http://www.w3.org/2000/svg" viewBox="0 0 48 64" enable-background="new 0 0 48 64"><style type="text/css">.st0{fill:#333333;}</style><title>speaker</title><desc>Created with Sketch.</desc><path class="st0" d="M44 0h-40c-2.2 0-4 1.8-4 4v56c0 2.2 1.8 4 4 4h40c2.2 0 4-1.8 4-4v-56c0-2.2-1.8-4-4-4zm0 60h-40v-56h40v56zM24 24c-8.8 0-16 7.2-16 16s7.2 16 16 16 16-7.2 16-16-7.2-16-16-16zm0 28c-6.6 0-12-5.4-12-12s5.4-12 12-12 12 5.4 12 12-5.4 12-12 12z"/><circle class="st0" cx="24" cy="14" r="4"/></svg>

<?xml version="1.0" encoding="utf-8"?>
<!-- Generator: Adobe Illustrator 21.0.0, SVG Export Plug-In . SVG Version: 6.00 Build 0)  -->
<svg version="1.1" id="Layer_1" xmlns="http://www.w3.org/2000/svg" xmlns:xlink="http://www.w3.org/1999/xlink" x="0px" y="0px"
	 viewBox="0 0 48 64" style="enable-background:new 0 0 48 64;" xml:space="preserve">
<style type="text/css">
	.st0{fill:#333333;}
</style>
<title>speaker</title>
<desc>Created with Sketch.</desc>
<g>
	<path class="st0" d="M44,0H4C1.8,0,0,1.8,0,4v56c0,2.2,1.8,4,4,4h40c2.2,0,4-1.8,4-4V4C48,1.8,46.2,0,44,0z M44,60c0,0-40,0-40,0
		C4,60,4,4,4,4c0,0,40,0,40,0C44,4,44,60,44,60z"/>
	<path class="st0" d="M24,24c-8.8,0-16,7.2-16,16s7.2,16,16,16s16-7.2,16-16S32.8,24,24,24z M24,52c-6.6,0-12-5.4-12-12
		c0-6.6,5.4-12,12-12s12,5.4,12,12C36,46.6,30.6,52,24,52z"/>
	<circle class="st0" cx="24" cy="14" r="4"/>
</g>
</svg>
